X:516
T:Polska efter Pål Karl Persson
S:efter Pål Karl Persson
O:Älvdalen, Dalarna
Z:[[http://www.bluerose.karenlmyers.org/IncipitsPolskaAlvdalen3.html|Karen Myers (#1054)]]
Z:Upptecknad 1995
M:3/4
L:1/8
R:Polska
K:Am
(3A2(d2 B2) c2 | (3:2:4d2 ^f2 ed e>(c | (3A2) (d2 B2) c2 | (3:2:4d2 ^f2 ed e2 |
e>(g a2) a>g | x2 e4 & fe/d/ e4 :: (3A2 (a2 g2) a>e | (3:2:4f2 f2 ed e>c |
(3A2 a2 (g2 a>)e |  x2 x2 e2 & (3:2:4f2 f2 ed e2 | d>(c A>)(c B)A/G/ | (Bc) A4 :|
(:musicend:)

(:music:)
